<?xml version="1.0" encoding="UTF-8"?>
<map version="1.10" tiledversion="1.12.2" orientation="orthogonal" renderorder="right-down" width="20" height="20" tilewidth="32" tileheight="32" infinite="0" nextlayerid="2" nextobjectid="1">
 <tileset firstgid="1" source="tiles2_1.tsx"/>
 <tileset firstgid="129" source="tiles2_3.tsx"/>
 <tileset firstgid="145" source="tiles2_4.tsx"/>
 <layer id="1" name="Tile Layer 1" width="20" height="20">
  <data encoding="csv">
13,14,15,16,13,14,15,16,1,2,3,4,13,14,15,16,13,14,15,16,
29,30,31,32,29,30,31,32,17,18,19,20,29,30,31,32,29,30,31,32,
45,46,47,48,45,46,47,48,33,34,35,36,45,46,47,48,45,46,47,48,
61,62,63,64,61,62,63,64,49,50,51,52,61,62,63,64,61,62,63,64,
7,54,21,5,39,8,24,5,149,2,204,183,6,37,56,55,8,21,54,23,
39,30,31,32,29,30,31,32,140,149,149,191,29,30,31,32,29,30,31,37,
38,46,47,48,45,46,47,48,198,198,198,198,45,46,47,48,45,46,47,23,
53,62,63,64,61,62,63,64,198,198,198,198,61,62,63,86,87,62,63,39,
22,14,15,16,5,6,7,8,1,2,3,4,13,14,15,102,103,14,15,24,
6,30,31,32,21,22,23,24,130,18,130,20,29,30,31,32,29,30,31,56,
56,46,47,48,37,38,39,40,130,130,130,36,45,46,47,48,45,46,47,39,
23,62,63,64,53,54,55,56,130,130,130,52,61,62,63,64,61,62,63,7,
37,14,15,16,13,14,15,16,1,2,130,4,5,6,7,8,13,14,15,53,
54,30,31,32,29,30,31,32,130,18,130,20,21,22,23,24,29,30,31,53,
56,46,47,48,45,46,47,48,33,130,130,36,37,38,39,40,45,46,47,8,
5,62,63,64,61,62,63,64,130,130,130,156,53,54,55,56,61,62,63,37,
8,14,15,86,87,14,15,16,1,2,3,4,13,14,15,16,13,14,15,39,
6,30,31,102,103,30,31,32,143,143,143,20,29,30,31,32,29,30,31,22,
5,46,47,48,45,46,47,48,143,143,143,36,45,46,47,48,45,46,47,23,
22,23,8,55,6,56,24,56,143,143,143,198,21,8,37,37,24,39,8,7
</data>
 </layer>
</map>
