<?xml version="1.0" encoding="UTF-8"?>
<map version="1.10" tiledversion="1.12.2" orientation="orthogonal" renderorder="right-down" width="20" height="20" tilewidth="32" tileheight="32" infinite="0" nextlayerid="2" nextobjectid="1">
 <tileset firstgid="1" source="roads1.tsx"/>
 <tileset firstgid="2073" source="green2.tsx"/>
 <layer id="1" name="Tile Layer 1" width="20" height="20">
  <data encoding="csv">
1211,1212,1211,1212,1211,1212,1211,251,252,253,251,252,253,2093,2091,2093,2094,2093,2094,2090,
1267,1268,1267,1268,1267,2093,2093,2094,308,309,307,308,309,2106,2107,2106,2107,2106,2107,2106,
1211,1212,1211,2093,2094,2093,2093,2094,364,365,363,364,365,2093,2094,2090,2093,2093,2094,2090,
1267,1268,1267,2093,2094,1268,1267,251,252,253,251,252,253,2106,2107,2106,2107,2106,2107,2106,
1211,1212,1211,2093,2094,1212,1211,307,308,309,307,308,309,2093,2094,2093,2094,2093,2094,2093,
1267,1268,1267,1268,1267,1268,1267,363,364,365,363,364,365,2093,2107,2106,2107,2106,2107,2106,
1211,1212,1211,2093,2094,1212,1211,2093,2094,253,251,252,253,2093,2094,2093,2094,2093,2094,2093,
1267,1268,1267,2093,2094,2093,2093,2093,2094,309,307,308,309,2093,2107,2106,2107,2106,2107,2106,
1211,1212,1211,1212,1211,2093,2094,2094,364,365,363,364,365,2093,2093,2094,2090,2090,2091,2093,
1267,1268,1267,1268,1267,1268,1267,251,252,253,251,252,253,2093,2107,2106,2090,2090,2107,2106,
1211,1212,2093,2094,1211,1212,1211,307,308,309,307,308,309,2093,2094,2093,2094,2094,2093,2094,
1267,1268,2093,2094,1267,2093,2094,2093,2094,365,363,364,365,2106,2107,2106,2107,2106,2107,2106,
1211,1212,1211,1212,1211,2093,2094,2093,2094,253,251,252,253,2094,2095,2090,2091,2093,2091,2093,
1267,1268,1267,1268,1267,1268,1267,307,308,309,307,308,309,2106,2107,2106,2107,2106,2107,2106,
1211,1212,1211,1212,1211,2093,2094,363,364,365,363,364,365,2094,2091,2094,2093,2094,2093,2093,
1267,1268,1267,2093,2093,2094,1267,251,252,253,251,252,253,2106,2107,2106,2107,2106,2107,2106,
1211,1212,1211,1212,2093,2094,2093,2094,2093,2094,307,308,309,2093,2094,2093,2094,2093,2094,2093,
1267,1268,1267,1268,1267,1268,2093,2093,2094,365,363,364,365,2106,2107,2106,2107,2106,2107,2106,
1211,1212,1211,1212,1211,1212,1211,251,252,253,251,252,253,2093,2094,2094,2091,2093,2094,2094,
1267,1268,1267,1268,1267,1268,1267,307,308,309,307,308,309,2106,2107,2106,2107,2106,2107,2106
</data>
 </layer>
</map>
