<?xml version="1.0" encoding="UTF-8"?>
<map version="1.10" tiledversion="1.12.2" orientation="orthogonal" renderorder="right-down" width="20" height="80" tilewidth="32" tileheight="32" infinite="0" nextlayerid="2" nextobjectid="1">
 <tileset firstgid="1" source="pinkpinkpink.tsx"/>
 <tileset firstgid="2" source="tiles2_2.tsx"/>
 <tileset firstgid="66" source="tilesGreen.tsx"/>
 <layer id="1" name="Tile Layer 1" width="20" height="80">
  <data encoding="csv">
1073741825,3221225473,1073741825,3221225473,1073741825,3221225473,1073741825,3221225473,1073741825,3221225473,3221225492,67,66,67,66,67,66,67,66,67,
1,2147483649,1,2147483649,1,2147483649,1,2147483649,1,3221225492,74,75,74,75,74,75,74,75,74,75,
2147483649,1,2147483649,1,2147483649,1,2147483649,1,3221225492,67,66,67,66,67,66,67,66,67,66,67,
1,2147483649,1,2147483649,1,2147483649,1,3221225492,74,75,74,75,74,75,74,75,74,75,74,75,
2147483649,1,2147483649,1,2147483649,1,3221225492,67,66,67,66,67,66,67,66,67,66,67,66,67,
1,2147483649,1,2147483649,1,3221225492,74,75,74,75,74,75,74,75,74,75,74,75,74,75,
2147483649,1,2147483649,1,3221225492,67,66,67,66,67,66,67,66,67,66,67,66,67,66,67,
1,2147483649,1,3221225492,74,75,74,75,74,75,74,75,74,75,74,75,74,75,74,75,
2147483649,1,3221225492,67,66,67,66,67,66,67,66,67,66,67,66,67,66,67,66,67,
2147483649,3221225492,74,75,74,75,74,75,74,75,74,75,74,75,74,75,74,75,74,75,
1,3,66,67,66,67,66,67,66,67,66,67,66,67,66,67,66,67,66,67,
2684354561,1,3,75,74,75,74,75,74,75,74,75,74,75,74,75,74,75,74,75,
536870913,2684354561,1,3,66,67,66,67,66,67,66,67,66,67,66,67,66,67,66,67,
2684354561,536870913,2684354561,1,3,536870913,3,75,74,75,74,75,74,75,74,75,74,75,74,75,
536870913,2684354561,536870913,2684354561,1,2684354561,536870913,3,66,67,66,67,66,67,66,67,66,67,66,67,
2684354561,536870913,2684354561,536870913,2684354561,536870913,2684354561,536870913,74,75,74,75,74,75,74,75,74,75,74,75,
536870913,2684354561,536870913,2684354561,536870913,2684354561,536870913,11,66,67,66,67,66,67,66,67,66,67,66,67,
2684354561,536870913,2684354561,536870913,2684354561,536870913,11,75,74,75,74,75,74,75,74,75,74,75,74,75,
536870913,2684354561,11,2684354561,536870913,2684354561,66,67,66,67,66,67,66,67,66,67,66,67,66,67,
2684354561,11,0,536870913,2684354561,536870913,74,75,74,75,74,75,74,75,74,75,74,75,74,75,
536870913,2147483650,0,2684354561,536870913,11,66,67,66,67,66,67,66,67,66,67,66,67,66,67,
2684354561,536870913,2147483650,44,45,75,74,75,74,75,74,75,74,75,74,75,74,75,74,75,
536870913,2684354561,536870913,67,66,67,66,67,66,67,66,67,66,67,66,67,66,67,66,67,
2684354561,536870913,74,75,74,75,74,75,74,75,74,75,74,75,74,75,74,75,74,75,
536870913,2147483650,66,67,66,67,66,67,66,67,66,67,66,67,66,67,66,67,66,67,
2684354561,536870913,2147483650,75,74,75,74,75,74,75,74,75,74,75,74,75,74,75,74,75,
536870913,536870913,2684354561,2147483650,66,67,66,67,66,67,66,67,66,67,66,67,66,67,66,67,
536870913,2684354561,536870913,2684354561,2147483650,75,74,75,74,75,74,75,74,75,74,75,74,75,74,75,
2684354561,536870913,2684354561,536870913,2684354561,536870913,2684354561,2147483650,66,67,66,67,66,67,66,67,66,67,66,67,
536870913,2684354561,536870913,2684354561,536870913,2684354561,536870913,3221225474,74,75,74,75,74,75,74,75,74,75,74,75,
536870913,2684354561,536870913,536870913,2684354561,536870913,3221225474,67,66,67,66,67,66,67,66,67,66,67,66,67,
2684354561,536870913,2684354561,2684354561,536870913,3221225474,74,75,74,75,74,75,74,75,74,75,74,75,74,75,
536870913,2684354561,536870913,2684354561,536870913,3758096425,66,67,66,67,66,67,66,67,66,67,66,67,66,67,
2684354561,536870913,2684354561,536870913,2684354561,3758096424,74,75,74,75,74,75,74,75,74,75,74,75,74,75,
536870913,2684354561,536870913,2684354561,536870913,67,66,67,66,67,66,67,66,67,66,67,66,67,66,67,
2684354561,536870913,2684354561,536870913,27,75,74,75,74,75,74,75,74,75,74,75,74,75,74,75,
536870913,2684354561,536870913,27,66,67,66,67,66,67,66,67,66,67,66,67,66,67,66,67,
2684354561,536870913,27,75,74,75,74,75,74,75,74,75,74,75,74,75,74,75,74,75,
536870913,27,66,67,66,67,66,67,66,67,66,67,66,67,66,67,66,67,66,67,
536870913,2684354561,41,75,74,75,74,75,74,75,74,75,74,75,74,75,74,75,74,75,
2684354561,536870913,2684354561,41,66,67,66,67,66,67,66,67,66,67,66,67,66,67,66,67,
536870913,2684354561,536870913,2684354561,41,75,74,75,74,75,74,75,74,75,74,75,74,75,74,75,
2684354561,536870913,2684354561,536870913,2684354561,41,66,67,66,67,66,67,66,67,66,67,66,67,66,67,
536870913,2684354561,536870913,2684354561,536870913,2684354561,3758096425,75,74,75,74,75,74,75,74,75,74,75,74,75,
2684354561,536870913,2684354561,536870913,2684354561,536870913,3758096424,67,66,67,66,67,66,67,66,67,66,67,66,67,
536870913,2684354561,536870913,2684354561,536870913,49,74,75,74,75,74,75,74,75,74,75,74,75,74,75,
2684354561,536870913,2684354561,536870913,49,67,66,67,66,67,66,67,66,67,66,67,66,67,66,67,
536870913,2684354561,536870913,49,74,75,74,75,74,75,74,75,74,75,74,75,74,75,74,75,
2684354561,536870913,49,67,66,67,66,67,66,67,66,67,66,67,66,67,66,67,66,67,
536870913,49,74,75,74,75,74,75,74,75,74,75,74,75,74,75,74,75,74,75,
2684354561,55,66,67,66,67,66,67,66,67,66,67,66,67,66,67,66,67,66,67,
536870913,2684354561,55,75,74,75,74,75,74,75,74,75,74,75,74,75,74,75,74,75,
2684354561,536870913,2684354561,67,66,67,66,67,66,67,66,67,66,67,66,67,66,67,66,67,
536870913,2684354561,13,75,74,75,74,75,74,75,74,75,74,75,74,75,74,75,74,75,
2684354561,13,66,67,66,67,66,67,66,67,66,67,66,67,66,67,66,67,66,67,
536870913,2684354561,5,75,74,75,74,75,74,75,74,75,74,75,74,75,74,75,74,75,
2684354561,536870913,2684354561,67,66,67,66,67,66,67,66,67,66,67,66,67,66,67,66,67,
536870913,2684354561,13,75,74,75,74,75,74,75,74,75,74,75,74,75,74,75,74,75,
2684354561,536870913,66,67,66,67,66,67,66,67,66,67,66,67,66,67,66,67,66,67,
536870913,13,74,75,74,75,74,75,74,75,74,75,74,75,74,75,74,75,74,75,
536870913,2684354561,5,67,66,67,66,67,66,67,66,67,66,67,66,67,66,67,66,67,
2684354561,536870913,2684354561,7,74,75,74,75,74,75,74,75,74,75,74,75,74,75,74,75,
536870913,2684354561,536870913,2684354561,7,67,66,67,66,67,66,67,66,67,66,67,66,67,66,67,
2684354561,536870913,2684354561,536870913,2684354561,7,74,75,74,75,74,75,74,75,74,75,74,75,74,75,
536870913,2684354561,536870913,2684354561,536870913,2684354561,66,67,66,67,66,67,66,67,66,67,66,67,66,67,
2684354561,536870913,2684354561,536870913,2684354561,11,74,75,74,75,74,75,74,75,74,75,74,75,74,75,
536870913,2684354561,536870913,2684354561,11,67,66,67,66,67,66,67,66,67,66,67,66,67,66,67,
2684354561,536870913,2684354561,11,74,75,74,75,74,75,74,75,74,75,74,75,74,75,74,75,
536870913,2684354561,11,67,66,67,66,67,66,67,66,67,66,67,66,67,66,67,66,67,
2684354561,11,74,75,74,75,74,75,74,75,74,75,74,75,74,75,74,75,74,75,
536870913,3,66,67,66,67,66,67,66,67,66,67,66,67,66,67,66,67,66,67,
536870913,2684354561,3,75,74,75,74,75,74,75,74,75,74,75,74,75,74,75,74,75,
2684354561,536870913,2684354561,3,66,67,66,67,66,67,66,67,66,67,66,67,66,67,66,67,
536870913,2684354561,536870913,2684354561,3,75,74,75,74,75,74,75,74,75,74,75,74,75,74,75,
2684354561,536870913,2684354561,536870913,2684354561,3,66,67,66,67,66,67,66,67,66,67,66,67,66,67,
536870913,2684354561,536870913,2684354561,536870913,2684354561,3,75,74,75,74,75,74,75,74,75,74,75,74,75,
2684354561,536870913,2684354561,536870913,2684354561,536870913,2684354561,3,66,67,66,67,66,67,66,67,66,67,66,67,
536870913,2684354561,536870913,2684354561,536870913,2684354561,536870913,2684354561,3,75,74,75,74,75,74,75,74,75,74,75,
2684354561,536870913,2684354561,536870913,2684354561,536870913,2684354561,536870913,2684354561,3,66,67,66,67,66,67,66,67,66,67,
536870913,2684354561,536870913,2684354561,536870913,2684354561,536870913,2684354561,536870913,2684354561,3,75,74,75,74,75,74,75,74,75
</data>
 </layer>
</map>
