<?xml version="1.0" encoding="UTF-8"?>
<map version="1.10" tiledversion="1.12.2" orientation="orthogonal" renderorder="right-down" width="20" height="20" tilewidth="32" tileheight="32" infinite="0" nextlayerid="2" nextobjectid="1">
 <tileset firstgid="1" source="../tiles2/tiles2_1.tsx"/>
 <layer id="1" name="Tile Layer 1" width="20" height="20">
  <data encoding="csv">
86,87,86,87,22,23,22,22,23,23,39,39,39,23,22,23,2684354662,2684354646,2684354662,2684354646,
102,103,102,103,38,39,38,38,22,23,22,23,39,39,38,39,2684354663,2684354647,2684354663,2684354647,
86,87,86,87,22,23,38,39,38,39,38,39,38,39,22,23,2684354662,2684354646,2684354662,2684354646,
102,103,102,103,38,39,22,23,9,10,11,12,38,39,38,39,2684354663,2684354647,2684354663,2684354647,
15,16,86,87,22,23,38,39,25,26,27,28,38,39,22,23,2684354662,2684354646,15,16,
16,16,102,103,38,39,22,23,41,42,43,44,38,39,38,39,2684354663,2684354647,31,32,
15,16,86,87,22,23,38,39,57,58,59,60,38,39,22,23,2684354662,2684354646,15,16,
15,16,102,103,38,39,38,39,22,22,22,22,38,39,22,23,2684354663,2684354647,31,32,
15,16,86,87,22,23,22,23,22,23,23,23,23,23,22,23,2684354662,2684354646,15,16,
15,16,102,103,38,39,38,39,38,39,39,39,39,39,38,39,2684354663,2684354647,31,32,
15,16,86,87,86,87,86,87,22,23,22,23,2684354662,2684354646,2684354662,2684354646,2684354662,2684354646,15,16,
15,16,102,103,102,103,102,103,22,23,38,39,2684354663,2684354647,2684354663,2684354647,2684354663,2684354647,31,32,
15,16,15,16,15,16,86,87,22,23,38,39,2684354662,2684354646,15,16,15,16,15,16,
31,32,31,32,31,32,102,103,22,23,38,39,2684354663,2684354647,15,16,31,32,31,32,
16,16,15,16,15,16,86,87,22,23,38,39,2684354662,2684354646,15,16,15,16,15,16,
15,16,31,32,31,32,102,103,22,23,38,39,2684354663,2684354647,31,32,31,32,31,32,
15,16,86,87,86,87,22,23,23,23,38,39,22,23,2684354662,2684354646,2684354662,2684354646,15,16,
31,32,102,103,102,103,22,23,39,39,38,39,38,39,2684354663,2684354647,2684354663,2684354647,31,32,
86,87,86,87,22,23,22,23,22,22,22,22,22,22,22,23,2684354662,2684354646,2684354662,2684354646,
102,103,102,103,38,39,38,39,38,38,38,38,38,38,38,39,2684354663,2684354647,2684354663,2684354647
</data>
 </layer>
</map>
